vNext/img/gooddata.svg

<svg width="1209" height="260" viewBox="0 0 1209 260" fill="none" xmlns="http://www.w3.org/2000/svg">
<path d="M233.794 163.133C233.037 130.781 215.197 105.101 187.961 95.0636V38.7563C181.084 34.3554 173.764 30.7169 166.125 27.9197V149.057C166.125 173.055 155.004 183.77 137.132 183.77C119.734 183.77 105.18 170.615 105.18 148.616C105.18 124.061 124.298 109.066 149.331 109.066C151.65 109.023 154.01 109.144 156.329 109.507V88.0705C154.01 87.6709 151.692 87.4711 149.331 87.5131C112.178 87.5131 83.065 110.312 83.065 148.663C83.065 185.537 109.339 205.212 138.615 205.212C152.491 205.212 164.489 200.491 172.771 192.372C181.047 184.254 188.05 172.534 188.05 151.939V118.383C203.167 125.943 212.284 144.257 212.326 165.215C212.247 204.686 175.652 238.043 132.742 238.043C131.743 238.043 130.981 238.043 129.982 238.001C100.548 237.964 74.6733 227.322 53.7151 206.327C38.6354 191.21 28.3193 171.972 24.1603 151.055C20.0012 130.097 22.1202 108.424 30.3173 88.6647C38.4776 68.9474 52.3113 52.0694 70.0673 40.1917C87.8234 28.314 108.703 21.994 130.055 21.994V0C112.977 0 96.0626 3.35981 80.3046 9.87966C64.5465 16.3995 50.1923 25.9952 38.1148 38.0359C13.718 62.3907 0 95.4632 0 129.939C0 164.411 13.6759 197.488 38.0307 221.885C62.3855 246.282 95.4579 260 129.934 260H132.695C143.295 260 153.853 258.36 164.011 255.2C164.053 255.2 164.09 255.157 164.132 255.157C178.807 250.599 192.246 242.838 203.524 232.443C223 214.445 233.721 190.653 233.8 165.336C233.836 165.252 233.794 163.175 233.794 163.133Z" fill="#1C0D3F"/>
<path d="M268.586 127.642C268.586 91.3674 295.307 62.1701 332.823 59.3361C334.768 59.1573 336.714 59.1573 338.838 59.1573C340.783 59.1573 342.907 59.1573 344.679 59.3361C370.69 61.2815 387.858 75.6146 394.404 84.285L377.063 98.2659C369.276 88.0024 357.067 80.2154 338.843 80.0418C311.949 80.0418 293.188 100.569 293.188 127.463C293.188 154.536 311.943 175.416 338.843 175.416C353.355 175.237 364.681 171.167 372.462 165.331V142.327H337.954V122.153H395.639V175.768C384.845 185.853 365.911 196.295 338.838 196.295C297.963 196.121 268.586 165.688 268.586 127.642ZM773.559 193.613V62.1386H819.393C835.671 62.1386 849.831 64.2628 862.571 72.2233C881.152 83.9012 892.652 104.428 892.652 127.789C892.652 151.324 881.147 171.851 862.571 183.529C849.831 191.489 835.677 193.613 819.393 193.613H773.559ZM797.804 172.729H818.509C829.835 172.729 839.389 171.846 848.769 165.825C860.625 158.038 867.881 143.705 867.881 127.605C867.881 111.858 860.625 97.5245 848.769 89.7375C839.389 83.7224 829.835 82.6603 818.331 82.6603H797.804V172.729ZM409.268 144.804C409.268 116.49 431.74 93.4864 462.352 93.4864C493.321 93.4864 515.615 116.49 515.615 144.804C515.615 173.118 493.321 196.295 462.352 196.295C431.562 196.3 409.268 173.297 409.268 144.804ZM904.151 145.125C904.151 116.811 923.437 93.8071 952.992 93.8071C968.918 93.8071 979.886 100.532 985.906 107.962H986.085L987.147 96.6359H1009.27L1009.45 193.782H987.678L986.616 181.573L986.264 181.394C980.601 189.533 969.102 196.61 953.349 196.61C923.263 196.621 904.151 173.439 904.151 145.125ZM491.902 145.161C491.902 127.642 480.397 113.661 462.352 113.661C444.659 113.661 432.803 127.642 432.803 145.161C432.803 162.15 444.659 175.952 462.352 175.952C480.403 175.952 491.902 162.15 491.902 145.161ZM986.432 145.125C986.432 127.784 975.107 113.982 957.056 113.982C939.715 113.982 927.68 127.784 927.68 145.125C927.68 162.465 939.715 176.267 957.056 176.267C975.112 176.273 986.432 162.465 986.432 145.125ZM1045.89 181.226C1040.94 174.68 1039.52 166.893 1039.52 156.629V116.285H1021.47V96.6412H1039.52V60.3666C1040.23 60.5454 1040.76 60.7189 1041.46 61.0764C1045 62.4908 1048.72 63.9052 1052.08 65.6771C1055.8 67.6225 1059.33 69.568 1062.87 71.6922V96.6412H1092.78V116.285H1062.87V155.215C1062.87 161.587 1063.76 166.54 1066.41 169.727C1068.89 173.086 1072.96 175.037 1078.09 175.037C1083.93 175.037 1088.53 173.092 1091.18 171.146L1099.85 187.782C1095.6 191.142 1086.23 195.391 1074.9 195.391C1063.06 195.38 1052.08 191.137 1045.89 181.226ZM527.119 144.804C527.119 116.49 549.413 93.4864 580.204 93.4864C610.994 93.4864 633.467 116.49 633.467 144.804C633.467 173.118 610.994 196.295 580.204 196.295C549.234 196.3 527.119 173.297 527.119 144.804ZM609.753 145.161C609.753 127.642 598.075 113.661 580.204 113.661C562.332 113.661 550.654 127.642 550.654 145.161C550.654 162.15 562.332 175.952 580.204 175.952C598.075 175.952 609.753 162.15 609.753 145.161ZM1103.4 145.125C1103.4 116.811 1122.69 93.8071 1152.24 93.8071C1168.17 93.8071 1179.14 100.532 1185.16 107.962H1185.33L1186.4 96.6359H1208.52L1208.7 193.782H1186.93L1185.87 181.573L1185.51 181.394C1179.85 189.533 1168.35 196.61 1152.6 196.61C1122.51 196.621 1103.4 173.439 1103.4 145.125ZM1185.69 145.125C1185.69 127.784 1174.36 113.982 1156.31 113.982C1138.97 113.982 1126.94 127.784 1126.94 145.125C1126.94 162.465 1138.97 176.267 1156.31 176.267C1174.36 176.273 1185.69 162.465 1185.69 145.125ZM676.818 193.466C656.822 186.562 644.792 167.276 644.792 144.804C644.792 116.49 664.078 93.4864 693.633 93.4864C709.56 93.4864 720.528 100.211 726.548 107.641H726.727V50.6289L730.087 51.8698C733.977 53.4629 737.695 55.0561 741.233 57.0015C744.241 58.5947 747.248 60.1878 750.083 62.1333V193.466H728.315L727.253 181.257L726.9 181.078C723.362 186.031 717.699 190.632 710.264 193.466C705.485 195.238 700.001 196.295 693.986 196.295C687.792 196.3 681.95 195.238 676.818 193.466ZM727.074 144.804C727.074 127.463 715.748 113.661 697.698 113.661C680.357 113.661 668.321 127.463 668.321 144.804C668.321 162.145 680.357 175.947 697.698 175.947C715.748 175.952 727.074 162.15 727.074 144.804Z" fill="#1C0D3F"/>
</svg>

<svg width="1209" height="260" viewBox="0 0 1209 260" fill="none" xmlns="http://www.w3.org/2000/svg"><path d="M233.794 163.133c-.757-32.352-18.597-58.032-45.833-68.07V38.757a111.91 111.91 0 00-21.836-10.836v121.137c0 23.998-11.121 34.713-28.993 34.713-17.398 0-31.952-13.155-31.952-35.154 0-24.555 19.118-39.55 44.151-39.55 2.319-.043 4.679.078 6.998.441V88.07a37.12 37.12 0 00-6.998-.557c-37.153 0-66.266 22.799-66.266 61.15 0 36.874 26.274 56.549 55.55 56.549 13.876 0 25.874-4.721 34.156-12.84 8.276-8.118 15.279-19.838 15.279-40.433v-33.556c15.117 7.56 24.234 25.874 24.276 46.832-.079 39.471-36.674 72.828-79.584 72.828-.999 0-1.761 0-2.76-.042-29.434-.037-55.309-10.679-76.267-31.674-15.08-15.117-25.396-34.355-29.555-55.272-4.159-20.958-2.04-42.631 6.157-62.39a108.037 108.037 0 0139.75-48.473 107.878 107.878 0 0159.988-18.198V0a130.16 130.16 0 00-49.75 9.88 130.49 130.49 0 00-42.19 28.156A129.878 129.878 0 000 129.939a130.153 130.153 0 0038.03 91.946A129.877 129.877 0 00129.935 260h2.761c10.6 0 21.158-1.64 31.316-4.8.042 0 .079-.043.121-.043a103.32 103.32 0 0039.392-22.714c19.476-17.998 30.197-41.79 30.276-67.107.036-.084-.006-2.161-.006-2.203zm34.792-35.491c0-36.275 26.721-65.472 64.237-68.306 1.945-.179 3.891-.179 6.015-.179 1.945 0 4.069 0 5.841.18 26.011 1.944 43.179 16.278 49.725 24.948l-17.341 13.98c-7.787-10.263-19.996-18.05-38.22-18.223-26.894 0-45.655 20.527-45.655 47.421 0 27.073 18.755 47.953 45.655 47.953 14.512-.179 25.838-4.249 33.619-10.085v-23.004h-34.508v-20.174h57.685v53.615c-10.794 10.085-29.728 20.527-56.801 20.527-40.875-.174-70.252-30.607-70.252-68.653zm504.973 65.971V62.139h45.834c16.278 0 30.438 2.124 43.178 10.084 18.581 11.678 30.081 32.205 30.081 55.566 0 23.535-11.505 44.062-30.081 55.74-12.74 7.96-26.894 10.084-43.178 10.084h-45.834zm24.245-20.884h20.705c11.326 0 20.88-.883 30.26-6.904 11.856-7.787 19.112-22.12 19.112-38.22 0-15.747-7.256-30.08-19.112-37.868-9.38-6.015-18.934-7.077-30.438-7.077h-20.527v90.069zm-388.536-27.925c0-28.314 22.472-51.318 53.084-51.318 30.969 0 53.263 23.004 53.263 51.318 0 28.314-22.294 51.491-53.263 51.491-30.79.005-53.084-22.998-53.084-51.491zm494.883.321c0-28.314 19.286-51.318 48.841-51.318 15.926 0 26.894 6.725 32.914 14.155h.179l1.062-11.326h22.123l.18 97.146h-21.772l-1.062-12.209-.352-.179c-5.663 8.139-17.162 15.216-32.915 15.216-30.086.011-49.198-23.171-49.198-51.485zm-412.249.036c0-17.519-11.505-31.5-29.55-31.5-17.693 0-29.549 13.981-29.549 31.5 0 16.989 11.856 30.791 29.549 30.791 18.051 0 29.55-13.802 29.55-30.791zm494.53-.036c0-17.341-11.325-31.143-29.376-31.143-17.341 0-29.376 13.802-29.376 31.143 0 17.34 12.035 31.142 29.376 31.142 18.056.006 29.376-13.802 29.376-31.142zm59.458 36.101c-4.95-6.546-6.37-14.333-6.37-24.597v-40.344h-18.05V96.641h18.05V60.367c.71.178 1.24.352 1.94.71 3.54 1.414 7.26 2.828 10.62 4.6 3.72 1.945 7.25 3.891 10.79 6.015v24.95h29.91v19.643h-29.91v38.93c0 6.372.89 11.325 3.54 14.512 2.48 3.359 6.55 5.31 11.68 5.31 5.84 0 10.44-1.945 13.09-3.891l8.67 16.636c-4.25 3.36-13.62 7.609-24.95 7.609-11.84-.011-22.82-4.254-29.01-14.165zm-518.771-36.422c0-28.314 22.294-51.318 53.085-51.318 30.79 0 53.263 23.004 53.263 51.318 0 28.314-22.473 51.491-53.263 51.491-30.97.005-53.085-22.998-53.085-51.491zm82.634.357c0-17.519-11.678-31.5-29.549-31.5-17.872 0-29.55 13.981-29.55 31.5 0 16.989 11.678 30.791 29.55 30.791 17.871 0 29.549-13.802 29.549-30.791zm493.647-.036c0-28.314 19.29-51.318 48.84-51.318 15.93 0 26.9 6.725 32.92 14.155h.17l1.07-11.326h22.12l.18 97.146h-21.77l-1.06-12.209-.36-.179c-5.66 8.139-17.16 15.216-32.91 15.216-30.09.011-49.2-23.171-49.2-51.485zm82.29 0c0-17.341-11.33-31.143-29.38-31.143-17.34 0-29.37 13.802-29.37 31.143 0 17.34 12.03 31.142 29.37 31.142 18.05.006 29.38-13.802 29.38-31.142zm-508.872 48.341c-19.996-6.904-32.026-26.19-32.026-48.662 0-28.314 19.286-51.318 48.841-51.318 15.927 0 26.895 6.725 32.915 14.155h.179V50.629l3.36 1.24c3.89 1.594 7.608 3.187 11.146 5.133 3.008 1.593 6.015 3.186 8.85 5.131v131.333h-21.768l-1.062-12.209-.353-.179c-3.538 4.953-9.201 9.554-16.636 12.388-4.779 1.772-10.263 2.829-16.278 2.829-6.194.005-12.036-1.057-17.168-2.829zm50.256-48.662c0-17.341-11.326-31.143-29.376-31.143-17.341 0-29.377 13.802-29.377 31.143s12.036 31.143 29.377 31.143c18.05.005 29.376-13.797 29.376-31.143z" fill="#1C0D3F"/></svg>
